flaticon/transport/bus-18.svg

<svg xmlns="http://www.w3.org/2000/svg" width="32" height="32" viewBox="0 0 24 24">
    <path d="M17.96875 14.15625L17.96875 17.351562C17.96875 17.589844 18.128906 17.75 18.371094 17.75 18.609375 17.75 18.769531 17.550781 18.769531 17.351562L18.769531 14.15625C18.769531 13.917969 18.609375 13.757812 18.371094 13.757812 18.128906 13.757812 17.96875 13.917969 17.96875 14.15625zM15.414062 4.652344L12.539062 4.652344C12.019531 4.652344 11.582031 5.089844 11.582031 5.609375L11.582031 9.285156C11.582031 9.804688 12.019531 10.242188 12.539062 10.242188L15.414062 10.242188C15.933594 10.242188 16.371094 9.804688 16.371094 9.285156L16.371094 5.609375C16.371094 5.089844 15.933594 4.652344 15.414062 4.652344zM15.574219 9.285156C15.574219 9.363281 15.496094 9.445312 15.414062 9.445312L12.539062 9.445312C12.460938 9.445312 12.378906 9.363281 12.378906 9.285156L12.378906 5.609375C12.378906 5.53125 12.460938 5.449219 12.539062 5.449219L15.414062 5.449219C15.496094 5.449219 15.574219 5.53125 15.574219 5.609375zM9.425781 4.652344L6.550781 4.652344C6.03125 4.652344 5.589844 5.089844 5.589844 5.609375L5.589844 9.285156C5.589844 9.804688 6.03125 10.242188 6.550781 10.242188L9.425781 10.242188C9.945312 10.242188 10.382812 9.804688 10.382812 9.285156L10.382812 5.609375C10.382812 5.089844 9.945312 4.652344 9.425781 4.652344zM9.585938 9.285156C9.585938 9.363281 9.503906 9.445312 9.425781 9.445312L6.550781 9.445312C6.46875 9.445312 6.390625 9.363281 6.390625 9.285156L6.390625 5.609375C6.390625 5.53125 6.46875 5.449219 6.550781 5.449219L9.425781 5.449219C9.503906 5.449219 9.585938 5.53125 9.585938 5.609375zM4.792969 16.234375C4.351562 16.234375 3.992188 16.59375 3.992188 17.03125 3.992188 17.472656 4.351562 17.832031 4.792969 17.832031 5.230469 17.832031 5.589844 17.472656 5.589844 17.03125 5.589844 16.59375 5.230469 16.234375 4.792969 16.234375zM4.792969 16.234375"/>
    <path d="M 24 16.234375 L 24 8.246094 C 24 7.886719 23.878906 7.566406 23.640625 7.328125 L 20.167969 3.496094 C 19.886719 3.214844 19.527344 3.054688 19.167969 3.054688 L 1.199219 3.054688 C 0.558594 3.054688 0 3.574219 0 4.253906 L 0 16.234375 C 0 16.871094 0.519531 17.429688 1.199219 17.429688 L 2.023438 17.429688 C 2.214844 18.796875 3.371094 19.828125 4.792969 19.828125 C 6.214844 19.828125 7.367188 18.796875 7.558594 17.429688 L 14.128906 17.429688 L 12.859375 19.628906 C 12.699219 19.90625 12.699219 20.226562 12.859375 20.503906 C 13.019531 20.785156 13.296875 20.945312 13.617188 20.945312 L 23.082031 20.945312 C 23.402344 20.945312 23.679688 20.785156 23.800781 20.464844 C 23.960938 20.1875 23.960938 19.867188 23.800781 19.585938 L 22.546875 17.429688 L 22.761719 17.429688 C 23.402344 17.429688 23.960938 16.871094 24 16.234375 Z M 23 7.847656 C 23.121094 7.925781 23.160156 8.085938 23.160156 8.207031 L 23.160156 9.445312 L 18.371094 9.445312 L 18.371094 5.449219 L 20.804688 5.449219 Z M 0.796875 5.449219 L 3.515625 5.449219 C 3.554688 5.449219 3.59375 5.492188 3.59375 5.53125 L 3.59375 9.363281 C 3.59375 9.40625 3.554688 9.445312 3.515625 9.445312 L 0.796875 9.445312 Z M 4.792969 19.027344 C 3.675781 19.027344 2.796875 18.148438 2.796875 17.03125 C 2.796875 15.914062 3.675781 15.035156 4.792969 15.035156 C 5.910156 15.035156 6.789062 15.914062 6.789062 17.03125 C 6.789062 18.148438 5.910156 19.027344 4.792969 19.027344 Z M 23.160156 20.066406 C 23.160156 20.066406 23.121094 20.105469 23.082031 20.105469 L 13.617188 20.105469 C 13.578125 20.105469 13.539062 20.105469 13.539062 20.066406 C 13.539062 20.066406 13.496094 20.027344 13.539062 19.988281 L 18.25 11.878906 C 18.289062 11.839844 18.289062 11.839844 18.328125 11.839844 C 18.371094 11.839844 18.410156 11.839844 18.410156 11.878906 L 23.160156 19.988281 C 23.203125 20.027344 23.160156 20.066406 23.160156 20.066406 Z M 21.726562 16.023438 C 21.613281 15.738281 21.464844 15.457031 21.253906 15.207031 L 19.089844 11.480469 C 18.929688 11.203125 18.648438 11.042969 18.328125 11.042969 C 18.011719 11.042969 17.730469 11.203125 17.570312 11.480469 L 14.496094 16.632812 L 7.558594 16.632812 C 7.367188 15.269531 6.214844 14.234375 4.792969 14.234375 C 4.785156 14.234375 4.777344 14.238281 4.773438 14.238281 C 4.765625 14.238281 4.757812 14.234375 4.753906 14.234375 C 3.355469 14.234375 2.195312 15.273438 1.996094 16.632812 L 1.199219 16.632812 C 1 16.632812 0.796875 16.472656 0.796875 16.234375 L 0.796875 13.4375 L 14.777344 13.4375 C 15.015625 13.4375 15.175781 13.277344 15.175781 13.039062 C 15.175781 12.796875 15.015625 12.640625 14.777344 12.640625 L 0.796875 12.640625 L 0.796875 11.839844 L 13.179688 11.839844 C 13.417969 11.839844 13.578125 11.679688 13.578125 11.441406 C 13.578125 11.203125 13.417969 11.042969 13.179688 11.042969 L 0.796875 11.042969 L 0.796875 10.242188 L 3.515625 10.242188 C 3.992188 10.242188 4.394531 9.84375 4.394531 9.363281 L 4.394531 5.53125 C 4.394531 5.050781 3.992188 4.652344 3.515625 4.652344 L 0.796875 4.652344 L 0.796875 4.253906 C 0.796875 4.054688 1 3.855469 1.199219 3.855469 L 19.167969 3.855469 C 19.289062 3.855469 19.449219 3.933594 19.566406 4.011719 L 20.140625 4.652344 L 18.25 4.652344 C 17.890625 4.652344 17.570312 4.972656 17.570312 5.332031 L 17.570312 9.5625 C 17.570312 9.921875 17.890625 10.242188 18.25 10.242188 L 23.160156 10.242188 L 23.160156 12.238281 L 21.164062 12.238281 C 20.925781 12.238281 20.765625 12.398438 20.765625 12.640625 C 20.765625 12.878906 20.925781 13.039062 21.164062 13.039062 L 23.160156 13.039062 L 23.160156 16.234375 C 23.160156 16.433594 23 16.632812 22.761719 16.632812 L 22.125 16.632812 L 21.871094 16.265625 Z M 21.726562 16.023438"/>
</svg>

<svg xmlns="http://www.w3.org/2000/svg" width="32" height="32" viewBox="0 0 24 24">
    <path d="M17.969 14.156v3.196c0 .238.16.398.402.398a.4.4 0 0 0 .399-.398v-3.196c0-.238-.16-.398-.399-.398-.242 0-.402.16-.402.398zm0 0M15.414 4.652H12.54a.969.969 0 0 0-.957.957v3.676c0 .52.438.957.957.957h2.875c.52 0 .957-.437.957-.957V5.61a.969.969 0 0 0-.957-.957zm.16 4.633c0 .078-.078.16-.16.16H12.54c-.078 0-.16-.082-.16-.16V5.61c0-.078.082-.16.16-.16h2.875c.082 0 .16.082.16.16zm0 0M9.426 4.652H6.55c-.52 0-.961.438-.961.957v3.676c0 .52.441.957.96.957h2.876c.52 0 .957-.437.957-.957V5.61a.969.969 0 0 0-.957-.957zm.16 4.633c0 .078-.082.16-.16.16H6.55c-.082 0-.16-.082-.16-.16V5.61c0-.078.078-.16.16-.16h2.875c.078 0 .16.082.16.16zm0 0M4.793 16.234c-.441 0-.8.36-.8.797 0 .442.359.801.8.801.437 0 .797-.36.797-.8a.8.8 0 0 0-.797-.798zm0 0"/>
    <path d="M24 16.234V8.246c0-.36-.121-.68-.36-.918l-3.472-3.832a1.432 1.432 0 0 0-1-.441H1.199C.56 3.055 0 3.575 0 4.254v11.98c0 .637.52 1.196 1.2 1.196h.823a2.778 2.778 0 0 0 2.77 2.398 2.774 2.774 0 0 0 2.766-2.398h6.57l-1.27 2.199a.857.857 0 0 0 0 .875c.16.281.438.441.758.441h9.465c.32 0 .598-.16.719-.48a.864.864 0 0 0 0-.88l-1.254-2.155h.215c.64 0 1.199-.559 1.238-1.196zm-1-8.386c.121.078.16.238.16.359v1.238h-4.789V5.45h2.434zM.797 5.449h2.719c.039 0 .078.043.078.082v3.832c0 .043-.04.082-.078.082H.796zm3.996 13.578a1.977 1.977 0 0 1-1.996-1.996c0-1.117.879-1.996 1.996-1.996s1.996.88 1.996 1.996a1.977 1.977 0 0 1-1.996 1.996zm18.367 1.04s-.039.038-.078.038h-9.465c-.039 0-.078 0-.078-.039 0 0-.043-.039 0-.078l4.711-8.11c.04-.038.04-.038.078-.038.043 0 .082 0 .082.039l4.75 8.11c.043.038 0 .077 0 .077zm-1.433-4.044a2.923 2.923 0 0 0-.473-.816L19.09 11.48a.863.863 0 0 0-.762-.437.861.861 0 0 0-.758.437l-3.074 5.153H7.56a2.777 2.777 0 0 0-2.766-2.399c-.008 0-.016.004-.02.004-.007 0-.015-.004-.02-.004a2.796 2.796 0 0 0-2.757 2.399H1.2c-.199 0-.402-.16-.402-.399v-2.797h13.98c.239 0 .399-.16.399-.398 0-.242-.16-.398-.399-.398H.797v-.801H13.18c.238 0 .398-.16.398-.399 0-.238-.16-.398-.398-.398H.797v-.8h2.719a.888.888 0 0 0 .879-.88V5.531a.888.888 0 0 0-.88-.879H.798v-.398c0-.2.203-.399.402-.399h17.969c.121 0 .281.079.398.157l.575.64H18.25c-.36 0-.68.32-.68.68v4.23c0 .36.32.68.68.68h4.91v1.996h-1.996c-.238 0-.398.16-.398.403 0 .238.16.398.398.398h1.996v3.195a.4.4 0 0 1-.398.399h-.637l-.254-.367zm0 0"/>
</svg>
